surface glass(
    color reflectionColor,
    color refractionColor,
    color transmissionColor,        // TODO
    float absorption,               // TODO
    float ior
    )
{
    if( backfacing() ) { // Take into account backfacing to invert ior accordingly
        ior = 1.0 / ior;
    }

    Ci = reflectionColor * reflection( N, ior ) + refractionColor * refraction( N, ior );
}
