shader Test
(
	color diffuseColor = color(1.0,0.0,0.0),
	color specularColor = color(1.0),
	float glossiness = 1.0
)

{
	closure color d = diffuseColor * diffuse(N);
    closure color s = specularColor * vray_blinn(N, glossiness, 0.0, 0.0, "trace_reflections", 1 );
    Ci = s; // render once, and then uncomment out s or d, and run again, no change will be visible in viewport.
}